img/partners/img-1.svg

<svg width="222" height="35" viewBox="0 0 222 35" fill="none" xmlns="http://www.w3.org/2000/svg">
<g clip-path="url(#clip0_400_5240)">
<mask id="mask0_400_5240" style="mask-type:luminance" maskUnits="userSpaceOnUse" x="0" y="0" width="223" height="35">
<path d="M0 0H222.001V35H0V0Z" fill="white"/>
</mask>
<g mask="url(#mask0_400_5240)">
<path d="M28.6344 18.7971C37.0023 18.5002 42.0839 14.9394 42.0839 10.7478C42.0839 6.27979 36.5465 2.65891 27.1142 2.65891H25.7588L28.5361 0L24.41 0.0158347L17.6075 2.65891H6.77058C2.96338 2.65891 0.847153 3.5958 0 5.42339H22.2752C28.4172 5.42339 32.5453 6.35764 32.5453 10.6112C32.5453 15.1954 27.582 16.0874 22.2752 16.0874H12.2721L21.127 25.6509C28.6325 33.5881 35.6715 35 44.4101 35L28.6344 18.7971Z" fill="#E3132C"/>
</g>
<mask id="mask1_400_5240" style="mask-type:luminance" maskUnits="userSpaceOnUse" x="0" y="0" width="223" height="35">
<path d="M0 0H222.001V35H0V0Z" fill="white"/>
</mask>
<g mask="url(#mask1_400_5240)">
<path d="M69.9887 20.9449C68.3116 20.9449 66.9549 20.7424 65.9223 20.4989V11.2798C66.9934 11.1505 68.3767 11.039 69.9887 11.039C73.8623 11.039 76.1214 12.6093 76.1214 15.8798C76.1214 19.2117 73.7015 20.9436 69.9887 20.9436M70.57 9.05109C67.3103 9.05109 64.147 9.44234 60.7563 9.571V28.091H65.9223V22.6894C67.3987 22.828 69.0239 22.9309 70.5707 22.9309C77.512 22.9309 81.902 20.8803 81.902 15.8791C81.902 10.878 77.5107 9.05241 70.5694 9.05241M99.5905 26.5867C95.491 26.5867 92.6498 23.5742 92.6498 18.7967C92.6498 14.0529 95.491 10.9427 99.5905 10.9427C103.723 10.9427 106.531 14.0522 106.531 18.796C106.531 23.5399 103.723 26.5854 99.5905 26.5854M99.5905 8.95476C91.9396 8.95476 86.8719 12.9616 86.8719 18.7954C86.8719 24.6291 91.9396 28.572 99.5905 28.572C107.241 28.572 112.31 24.6285 112.31 18.7941C112.31 12.9616 107.242 8.9541 99.5912 8.9541" fill="#E3132C"/>
</g>
<path d="M187.621 9.55176L176.162 24.2121V9.55176H170.996V28.176H176.162L187.621 13.484V28.176H192.786V9.55176H190.687" fill="#E3132C"/>
<mask id="mask2_400_5240" style="mask-type:luminance" maskUnits="userSpaceOnUse" x="0" y="0" width="223" height="35">
<path d="M0 0H222.001V35H0V0Z" fill="white"/>
</mask>
<g mask="url(#mask2_400_5240)">
<path d="M131.259 11.0077C135.261 11.0077 137.651 13.1552 137.651 13.1552L138.715 10.3974C138.715 10.3974 135.713 8.95508 130.613 8.95508C123.253 8.95508 118.088 12.9626 118.088 18.7964C118.088 24.6301 122.929 28.5723 130.935 28.5723C135.843 28.5723 138.683 27.0337 138.683 27.0337V24.0693C138.683 24.0693 136.294 26.3442 131.484 26.3442C126.577 26.3442 123.866 23.5072 123.866 18.7964C123.866 14.1165 126.641 11.007 131.257 11.007M212.025 19.6943C208.667 19.6943 206.634 18.091 206.634 15.2078C206.634 12.3866 208.667 11.04 212.025 11.04C213.847 11.04 215.544 11.1964 216.835 11.362V19.695L212.025 19.6943ZM211.443 9.05207C205.182 9.05207 200.856 10.6223 200.856 15.2388C200.856 18.2896 202.612 20.0882 205.699 20.9604L198.822 28.4489H199.467C204.18 28.4489 206.505 27.4546 209.54 23.8008L211.342 21.6149C211.377 21.6149 211.409 21.6169 211.443 21.6169H216.835V28.0913H221.999V9.5568C217.643 9.4288 214.705 9.05207 211.444 9.05207M156.405 11.0077C160.407 11.0077 162.795 13.1552 162.795 13.1552L163.861 10.3974C163.861 10.3974 160.858 8.95508 155.758 8.95508C148.399 8.95508 143.234 12.9626 143.234 18.7964C143.234 24.6301 148.076 28.5723 156.081 28.5723C160.988 28.5723 163.829 27.0337 163.829 27.0337V24.0693C163.829 24.0693 161.439 26.3442 156.63 26.3442C151.722 26.3442 149.01 23.5072 149.01 18.7964C149.012 14.1165 151.788 11.007 156.404 11.007" fill="#E3132C"/>
</g>
</g>
<defs>
<clipPath id="clip0_400_5240">
<rect width="222" height="35" fill="white"/>
</clipPath>
</defs>
</svg>

<svg width="222" height="35" fill="none" xmlns="http://www.w3.org/2000/svg"><g clip-path="url(#clip0_400_5240)"><mask id="a" style="mask-type:luminance" maskUnits="userSpaceOnUse" x="0" y="0" width="223" height="35"><path d="M0 0h222.001v35H0V0z" fill="#fff"/></mask><g mask="url(#a)"><path d="M28.634 18.797c8.368-.297 13.45-3.858 13.45-8.05 0-4.467-5.538-8.088-14.97-8.088H25.76L28.536 0 24.41.016l-6.802 2.643H6.77c-3.807 0-5.923.937-6.77 2.764h22.275c6.142 0 10.27.935 10.27 5.188 0 4.584-4.963 5.476-10.27 5.476H12.272l8.855 9.564C28.633 33.588 35.672 35 44.41 35L28.634 18.797z" fill="#E3132C"/></g><mask id="b" style="mask-type:luminance" maskUnits="userSpaceOnUse" x="0" y="0" width="223" height="35"><path d="M0 0h222.001v35H0V0z" fill="#fff"/></mask><g mask="url(#b)"><path d="M69.989 20.945c-1.677 0-3.034-.203-4.067-.446v-9.22a34.14 34.14 0 014.067-.24c3.873 0 6.132 1.57 6.132 4.84 0 3.333-2.42 5.065-6.132 5.065M70.57 9.05c-3.26 0-6.423.391-9.814.52v18.52h5.166v-5.402c1.477.139 3.102.242 4.649.242 6.941 0 11.331-2.05 11.331-7.052 0-5.001-4.391-6.827-11.333-6.827m29.022 17.535c-4.1 0-6.941-3.013-6.941-7.79 0-4.744 2.841-7.854 6.94-7.854 4.133 0 6.941 3.11 6.941 7.853 0 4.744-2.808 7.79-6.94 7.79m0-17.631c-7.651 0-12.72 4.007-12.72 9.84 0 5.834 5.069 9.777 12.72 9.777 7.65 0 12.719-3.944 12.719-9.778 0-5.832-5.068-9.84-12.719-9.84" fill="#E3132C"/></g><path d="M187.621 9.552l-11.459 14.66V9.552h-5.166v18.624h5.166l11.459-14.692v14.692h5.165V9.552h-2.099" fill="#E3132C"/><mask id="c" style="mask-type:luminance" maskUnits="userSpaceOnUse" x="0" y="0" width="223" height="35"><path d="M0 0h222.001v35H0V0z" fill="#fff"/></mask><g mask="url(#c)"><path d="M131.259 11.008c4.002 0 6.392 2.147 6.392 2.147l1.064-2.758s-3.002-1.442-8.102-1.442c-7.36 0-12.525 4.008-12.525 9.841 0 5.834 4.841 9.776 12.847 9.776 4.908 0 7.748-1.538 7.748-1.538v-2.965s-2.389 2.275-7.199 2.275c-4.907 0-7.618-2.837-7.618-7.548 0-4.68 2.775-7.789 7.391-7.789m80.768 8.687c-3.358 0-5.391-1.603-5.391-4.486 0-2.821 2.033-4.168 5.391-4.168 1.822 0 3.519.156 4.81.322v8.333h-4.81zm-.582-10.642c-6.261 0-10.587 1.57-10.587 6.187 0 3.05 1.756 4.85 4.843 5.721l-6.877 7.489h.645c4.713 0 7.038-.994 10.073-4.648l1.802-2.186.101.002h5.392v6.474h5.164V9.557c-4.356-.128-7.294-.505-10.555-.505m-55.039 1.956c4.002 0 6.39 2.147 6.39 2.147l1.066-2.758s-3.003-1.442-8.103-1.442c-7.359 0-12.524 4.008-12.524 9.841 0 5.834 4.842 9.776 12.847 9.776 4.907 0 7.748-1.538 7.748-1.538v-2.965s-2.39 2.275-7.199 2.275c-4.908 0-7.62-2.837-7.62-7.548.002-4.68 2.778-7.789 7.394-7.789" fill="#E3132C"/></g></g><defs><clipPath id="clip0_400_5240"><path fill="#fff" d="M0 0h222v35H0z"/></clipPath></defs></svg>
